static/assets/img/icons/theme/tools/roller.svg

<svg height="24" viewBox="0 0 24 24" width="24" xmlns="http://www.w3.org/2000/svg"><g fill="none" fill-rule="evenodd"><path d="m0 0h24v24h-24z" opacity="0"/><g fill="#000"><rect height="5" rx="1" width="15" x="3" y="2"/><rect height="10" rx="1" width="4" x="9" y="12"/><path d="m12 12h-2v-1c0-1.1045695.8954305-2 2-2h7v-3.5h-1v-2h1c1.1045695 0 2 .8954305 2 2v3.5c0 1.1045695-.8954305 2-2 2h-7z" fill-rule="nonzero" opacity=".3"/></g></g></svg>

<svg width="24px" height="24px" viewBox="0 0 24 24" version="1.1" xmlns="http://www.w3.org/2000/svg" xmlns:xlink="http://www.w3.org/1999/xlink">
    <title>Icon For Roller</title>
    <g stroke="none" stroke-width="1" fill="none" fill-rule="evenodd">
        <rect opacity="0" x="0" y="0" width="24" height="24"></rect>
        <rect fill="#000000" x="3" y="2" width="15" height="5" rx="1"></rect>
        <rect fill="#000000" x="9" y="12" width="4" height="10" rx="1"></rect>
        <path d="M12,12 L10,12 L10,11 C10,9.8954305 10.8954305,9 12,9 L19,9 L19,5.5 L18,5.5 L18,3.5 L19,3.5 C20.1045695,3.5 21,4.3954305 21,5.5 L21,9 C21,10.1045695 20.1045695,11 19,11 L12,11 L12,12 Z" fill="#000000" fill-rule="nonzero" opacity="0.3"></path>
    </g>
</svg>
